X: 15839
T: Gort Na Mona
R: slip jig
M: 9/8
K: Gmajor
|:G2B BAG ABc|d2g gfd BcA|G2B BAG ABc|1 A2d ded BcA:|2 d3 dgd fga||
b2a age dgb|aba aga bgd|ege edB ABc|ded dgd fga|
b2g gba ged|e3 ede gdB|A3 ABG ABc|d3 dgf dcA||

